X: 274
T: Glassis Hornpipe
M:3/2
L:1/8
S: 8: MCJLSH3 http://www.cpartington.plus.com/links/Walsh.abc
Z: Pete Stewart 2004
B: Walsh "Third Book of the most Celebrated jiggs, Lancashire hornpipes, ..."
K:D
d3B ABAG F2A2 | G2B2=cBAGF2A2 | d3B ABAG ^cBcA | d3B ABAGF2D2 ||
G2B2=cBAGF2A2 | B2G2gfed^c2A2 | d2f2gfed cdec | A2d2cdecd2D2 ||
f3g fgafb2B2 | g3f gfedc2A2 | d3f gfed cdec | A2d2 cdecd2D2 ||
BAGB AGFA F2D2 | d2ef gfedc2A2 | d2b2c2a2B2g2 | bagf efgaf2d2 ||
A,B,CD DEFD E2A,2 | B2G2gfedc2A2 | dfbf gbge dfaf | A2d2cdecd2D2 ||

%%sep 1 1 500
%%sep 1 1 500
